static/img/kroki/57bd7d1ee6d19016532f05ddb526a7a5.svg

<?xml version="1.0" encoding="us-ascii" standalone="no"?><svg xmlns="http://www.w3.org/2000/svg" xmlns:xlink="http://www.w3.org/1999/xlink" contentStyleType="text/css" height="352px" preserveAspectRatio="none" style="width:672px;height:352px;" version="1.1" viewBox="0 0 672 352" width="672px" zoomAndPan="magnify"><defs/><g><!--class aws_alb--><g id="elem_aws_alb"><rect codeLine="22" fill="#3D176E" height="39.7891" id="aws_alb" rx="2.5" ry="2.5" style="stroke:#000D19;stroke-width:0.5;" width="109" x="7" y="206.58"/><ellipse cx="22" cy="226.4745" fill="#ADD1B2" rx="11" ry="11" style="stroke:#181818;stroke-width:1.0;"/><path d="M24.9688,232.1152 Q24.3906,232.412 23.75,232.5527 Q23.1094,232.7089 22.4063,232.7089 Q19.9063,232.7089 18.5781,231.0683 Q17.2656,229.412 17.2656,226.287 Q17.2656,223.162 18.5781,221.5058 Q19.9063,219.8495 22.4063,219.8495 Q23.1094,219.8495 23.75,220.0058 Q24.4063,220.162 24.9688,220.4589 L24.9688,223.1777 Q24.3438,222.5995 23.75,222.3339 Q23.1563,222.0527 22.5313,222.0527 Q21.1875,222.0527 20.5,223.1308 Q19.8125,224.1933 19.8125,226.287 Q19.8125,228.3808 20.5,229.4589 Q21.1875,230.5214 22.5313,230.5214 Q23.1563,230.5214 23.75,230.2558 Q24.3438,229.9745 24.9688,229.3964 L24.9688,232.1152 Z " fill="#000000"/><text fill="#D9B8FF" font-family="Helvetica" font-size="17" lengthAdjust="spacing" textLength="67" x="41" y="232.3598">aws_alb</text></g><!--class aws_autoscaling_group--><g id="elem_aws_autoscaling_group"><rect codeLine="24" fill="#3D176E" height="39.7891" id="aws_autoscaling_group" rx="2.5" ry="2.5" style="stroke:#000D19;stroke-width:0.5;" width="236" x="151.5" y="206.58"/><ellipse cx="166.5" cy="226.4745" fill="#ADD1B2" rx="11" ry="11" style="stroke:#181818;stroke-width:1.0;"/><path d="M169.4688,232.1152 Q168.8906,232.412 168.25,232.5527 Q167.6094,232.7089 166.9063,232.7089 Q164.4063,232.7089 163.0781,231.0683 Q161.7656,229.412 161.7656,226.287 Q161.7656,223.162 163.0781,221.5058 Q164.4063,219.8495 166.9063,219.8495 Q167.6094,219.8495 168.25,220.0058 Q168.9063,220.162 169.4688,220.4589 L169.4688,223.1777 Q168.8438,222.5995 168.25,222.3339 Q167.6563,222.0527 167.0313,222.0527 Q165.6875,222.0527 165,223.1308 Q164.3125,224.1933 164.3125,226.287 Q164.3125,228.3808 165,229.4589 Q165.6875,230.5214 167.0313,230.5214 Q167.6563,230.5214 168.25,230.2558 Q168.8438,229.9745 169.4688,229.3964 L169.4688,232.1152 Z " fill="#000000"/><text fill="#D9B8FF" font-family="Helvetica" font-size="17" lengthAdjust="spacing" textLength="194" x="185.5" y="232.3598">aws_autoscaling_group</text></g><!--class aws_beanstalk_application--><g id="elem_aws_beanstalk_application"><rect codeLine="26" fill="#3D176E" height="39.7891" id="aws_beanstalk_application" rx="2.5" ry="2.5" style="stroke:#000D19;stroke-width:0.5;" width="265" x="222" y="7"/><ellipse cx="237" cy="26.8945" fill="#ADD1B2" rx="11" ry="11" style="stroke:#181818;stroke-width:1.0;"/><path d="M239.9688,32.5352 Q239.3906,32.832 238.75,32.9727 Q238.1094,33.1289 237.4063,33.1289 Q234.9063,33.1289 233.5781,31.4883 Q232.2656,29.832 232.2656,26.707 Q232.2656,23.582 233.5781,21.9258 Q234.9063,20.2695 237.4063,20.2695 Q238.1094,20.2695 238.75,20.4258 Q239.4063,20.582 239.9688,20.8789 L239.9688,23.5977 Q239.3438,23.0195 238.75,22.7539 Q238.1563,22.4727 237.5313,22.4727 Q236.1875,22.4727 235.5,23.5508 Q234.8125,24.6133 234.8125,26.707 Q234.8125,28.8008 235.5,29.8789 Q236.1875,30.9414 237.5313,30.9414 Q238.1563,30.9414 238.75,30.6758 Q239.3438,30.3945 239.9688,29.8164 L239.9688,32.5352 Z " fill="#000000"/><text fill="#D9B8FF" font-family="Helvetica" font-size="17" lengthAdjust="spacing" textLength="223" x="256" y="32.7798">aws_beanstalk_application</text></g><!--class aws_beanstalk_environment--><g id="elem_aws_beanstalk_environment"><rect codeLine="28" fill="#3D176E" height="39.7891" id="aws_beanstalk_environment" rx="2.5" ry="2.5" style="stroke:#000D19;stroke-width:0.5;" width="283" x="213" y="106.79"/><ellipse cx="228" cy="126.6845" fill="#ADD1B2" rx="11" ry="11" style="stroke:#181818;stroke-width:1.0;"/><path d="M230.9688,132.3252 Q230.3906,132.622 229.75,132.7627 Q229.1094,132.9189 228.4063,132.9189 Q225.9063,132.9189 224.5781,131.2783 Q223.2656,129.622 223.2656,126.497 Q223.2656,123.372 224.5781,121.7158 Q225.9063,120.0595 228.4063,120.0595 Q229.1094,120.0595 229.75,120.2158 Q230.4063,120.372 230.9688,120.6689 L230.9688,123.3877 Q230.3438,122.8095 229.75,122.5439 Q229.1563,122.2627 228.5313,122.2627 Q227.1875,122.2627 226.5,123.3408 Q225.8125,124.4033 225.8125,126.497 Q225.8125,128.5908 226.5,129.6689 Q227.1875,130.7314 228.5313,130.7314 Q229.1563,130.7314 229.75,130.4658 Q230.3438,130.1845 230.9688,129.6064 L230.9688,132.3252 Z " fill="#000000"/><text fill="#D9B8FF" font-family="Helvetica" font-size="17" lengthAdjust="spacing" textLength="241" x="247" y="132.5698">aws_beanstalk_environment</text></g><!--class aws_ec2_instance--><g id="elem_aws_ec2_instance"><rect codeLine="30" fill="#3D176E" height="39.7891" id="aws_ec2_instance" rx="2.5" ry="2.5" style="stroke:#000D19;stroke-width:0.5;" width="192" x="258.5" y="306.37"/><ellipse cx="273.5" cy="326.2645" fill="#ADD1B2" rx="11" ry="11" style="stroke:#181818;stroke-width:1.0;"/><path d="M276.4688,331.9052 Q275.8906,332.202 275.25,332.3427 Q274.6094,332.4989 273.9063,332.4989 Q271.4063,332.4989 270.0781,330.8583 Q268.7656,329.202 268.7656,326.077 Q268.7656,322.952 270.0781,321.2958 Q271.4063,319.6395 273.9063,319.6395 Q274.6094,319.6395 275.25,319.7958 Q275.9063,319.952 276.4688,320.2489 L276.4688,322.9677 Q275.8438,322.3895 275.25,322.1239 Q274.6563,321.8427 274.0313,321.8427 Q272.6875,321.8427 272,322.9208 Q271.3125,323.9833 271.3125,326.077 Q271.3125,328.1708 272,329.2489 Q272.6875,330.3114 274.0313,330.3114 Q274.6563,330.3114 275.25,330.0458 Q275.8438,329.7645 276.4688,329.1864 L276.4688,331.9052 Z " fill="#000000"/><text fill="#D9B8FF" font-family="Helvetica" font-size="17" lengthAdjust="spacing" textLength="150" x="292.5" y="332.1498">aws_ec2_instance</text></g><!--class aws_sqs_queue--><g id="elem_aws_sqs_queue"><rect codeLine="32" fill="#3D176E" height="39.7891" id="aws_sqs_queue" rx="2.5" ry="2.5" style="stroke:#000D19;stroke-width:0.5;" width="171" x="494" y="206.58"/><ellipse cx="509" cy="226.4745" fill="#ADD1B2" rx="11" ry="11" style="stroke:#181818;stroke-width:1.0;"/><path d="M511.9688,232.1152 Q511.3906,232.412 510.75,232.5527 Q510.1094,232.7089 509.4063,232.7089 Q506.9063,232.7089 505.5781,231.0683 Q504.2656,229.412 504.2656,226.287 Q504.2656,223.162 505.5781,221.5058 Q506.9063,219.8495 509.4063,219.8495 Q510.1094,219.8495 510.75,220.0058 Q511.4063,220.162 511.9688,220.4589 L511.9688,223.1777 Q511.3438,222.5995 510.75,222.3339 Q510.1563,222.0527 509.5313,222.0527 Q508.1875,222.0527 507.5,223.1308 Q506.8125,224.1933 506.8125,226.287 Q506.8125,228.3808 507.5,229.4589 Q508.1875,230.5214 509.5313,230.5214 Q510.1563,230.5214 510.75,230.2558 Q511.3438,229.9745 511.9688,229.3964 L511.9688,232.1152 Z " fill="#000000"/><text fill="#D9B8FF" font-family="Helvetica" font-size="17" lengthAdjust="spacing" textLength="129" x="528" y="232.3598">aws_sqs_queue</text></g><!--link aws_autoscaling_group to aws_ec2_instance--><g id="link_aws_autoscaling_group_aws_ec2_instance"><path codeLine="34" d="M286.29,246.8 C301.19,263.94 318.9151,284.3205 333.8051,301.4605 " fill="none" id="aws_autoscaling_group-to-aws_ec2_instance" style="stroke:#1A83AF;stroke-width:2.0;"/><polygon fill="#1A83AF" points="337.74,305.99,334.8573,296.5725,334.4609,302.2154,328.818,301.819,337.74,305.99" style="stroke:#1A83AF;stroke-width:2.0;"/></g><!--link aws_beanstalk_application to aws_beanstalk_environment--><g id="link_aws_beanstalk_application_aws_beanstalk_environment"><path codeLine="35" d="M354.5,47.22 C354.5,64.36 354.5,83.28 354.5,100.41 " fill="none" id="aws_beanstalk_application-to-aws_beanstalk_environment" style="stroke:#1A83AF;stroke-width:2.0;"/><polygon fill="#1A83AF" points="354.5,106.41,358.5,97.41,354.5,101.41,350.5,97.41,354.5,106.41" style="stroke:#1A83AF;stroke-width:2.0;"/></g><!--link aws_beanstalk_environment to aws_alb--><g id="link_aws_beanstalk_environment_aws_alb"><path codeLine="36" d="M296.61,147.01 C244.25,164.49 173.3714,188.1406 121.9814,205.2906 " fill="none" id="aws_beanstalk_environment-to-aws_alb" style="stroke:#1A83AF;stroke-width:2.0;"/><polygon fill="#1A83AF" points="116.29,207.19,126.0934,208.1352,121.0329,205.6072,123.5609,200.5467,116.29,207.19" style="stroke:#1A83AF;stroke-width:2.0;"/></g><!--link aws_beanstalk_environment to aws_autoscaling_group--><g id="link_aws_beanstalk_environment_aws_autoscaling_group"><path codeLine="37" d="M337.71,147.01 C322.81,164.15 305.0849,184.5305 290.1949,201.6705 " fill="none" id="aws_beanstalk_environment-to-aws_autoscaling_group" style="stroke:#1A83AF;stroke-width:2.0;"/><polygon fill="#1A83AF" points="286.26,206.2,295.182,202.029,289.5391,202.4254,289.1427,196.7825,286.26,206.2" style="stroke:#1A83AF;stroke-width:2.0;"/></g><!--link aws_beanstalk_environment to aws_ec2_instance--><g id="link_aws_beanstalk_environment_aws_ec2_instance"><path codeLine="38" d="M371.43,146.84 C383.55,161.91 398.85,184.06 405.5,206.58 C410.5,223.54 410.5,229.41 405.5,246.37 C398.85,268.9 387.3103,286.3645 375.1903,301.4345 " fill="none" id="aws_beanstalk_environment-to-aws_ec2_instance" style="stroke:#1A83AF;stroke-width:2.0;"/><polygon fill="#1A83AF" points="371.43,306.11,380.1874,301.6036,374.5636,302.2137,373.9534,296.5899,371.43,306.11" style="stroke:#1A83AF;stroke-width:2.0;"/></g><!--link aws_beanstalk_environment to aws_sqs_queue--><g id="link_aws_beanstalk_environment_aws_sqs_queue"><path codeLine="39" d="M398.95,147.01 C438.4,164.15 490.2176,186.6675 529.6376,203.8075 " fill="none" id="aws_beanstalk_environment-to-aws_sqs_queue" style="stroke:#1A83AF;stroke-width:2.0;"/><polygon fill="#1A83AF" points="535.14,206.2,528.4814,198.9431,530.5547,204.2063,525.2915,206.2796,535.14,206.2" style="stroke:#1A83AF;stroke-width:2.0;"/></g><!--SRC=[bPBHQy8m4CRV-rS4V1QiigalWqwGxKN6tDiOvTfSD3HDQf8gRkn_NpktaIMsukjzlxlxlkEsd2B1ih97KcAPeJQHARYiG4D94gtLOQ64qcJ06B39r1UNIjgBm0fA90yezcXv3ZxnikLv8T4OCdQaUyYBZLQrfAVnLeCqZOJIEjH2W369jPfdjKN739rdCyPyqXywcD1uUei1fZH5_OECHYCQpttaughUt7_4chyZYTsZhPJ5m6QmuflgTTaIZiaWwA_UwV49AELoGswSslF9avQe_zNNMw3gqD8CX77N68iQbJrMk0XIuNn6sVGi_DW5v-tb21nC2Y8Z7z6dMwcjCZc8naVQzbQUdc7pGXP4aK9LYIQjvKfsCYZtN2jPDW_dCPYFKzvICaTFCZkJxcgiJ_NpfeQlWpYPJPBbs_0kc1Tr6mtwpdgDkbC40veJNeNxKQvfxWdPs_TtqIy0]--></g></svg>

<svg xmlns="http://www.w3.org/2000/svg" width="672" height="352" viewBox="0 0 672 352"><rect width="109" height="39.789" x="7" y="206.58" fill="#3D176E" rx="2.5" ry="2.5" style="stroke:#000d19;stroke-width:.5"/><circle cx="22" cy="226.475" r="11" fill="#ADD1B2" style="stroke:#181818;stroke-width:1"/><path d="M24.969 232.115q-.578.297-1.219.438-.64.156-1.344.156-2.5 0-3.828-1.64-1.312-1.657-1.312-4.782t1.312-4.781q1.328-1.656 3.828-1.656.703 0 1.344.156.656.156 1.219.453v2.719q-.625-.578-1.219-.844-.594-.281-1.219-.281-1.343 0-2.031 1.078-.687 1.062-.687 3.156t.687 3.172q.688 1.062 2.031 1.062.625 0 1.219-.265.594-.281 1.219-.86z"/><text x="41" y="232.36" fill="#D9B8FF" font-family="Helvetica" font-size="17" textLength="67">aws_alb</text><rect width="236" height="39.789" x="151.5" y="206.58" fill="#3D176E" rx="2.5" ry="2.5" style="stroke:#000d19;stroke-width:.5"/><circle cx="166.5" cy="226.475" r="11" fill="#ADD1B2" style="stroke:#181818;stroke-width:1"/><path d="M169.469 232.115q-.578.297-1.219.438-.64.156-1.344.156-2.5 0-3.828-1.64-1.312-1.657-1.312-4.782t1.312-4.781q1.328-1.656 3.828-1.656.703 0 1.344.156.656.156 1.219.453v2.719q-.625-.578-1.219-.844-.594-.281-1.219-.281-1.344 0-2.031 1.078-.687 1.062-.687 3.156t.687 3.172q.688 1.062 2.031 1.062.625 0 1.219-.265.594-.281 1.219-.86z"/><text x="185.5" y="232.36" fill="#D9B8FF" font-family="Helvetica" font-size="17" textLength="194">aws_autoscaling_group</text><rect width="265" height="39.789" x="222" y="7" fill="#3D176E" rx="2.5" ry="2.5" style="stroke:#000d19;stroke-width:.5"/><circle cx="237" cy="26.895" r="11" fill="#ADD1B2" style="stroke:#181818;stroke-width:1"/><path d="M239.969 32.535q-.578.297-1.219.438-.64.156-1.344.156-2.5 0-3.828-1.64-1.312-1.657-1.312-4.782t1.312-4.781q1.328-1.656 3.828-1.656.703 0 1.344.156.656.156 1.219.453v2.719q-.625-.578-1.219-.844-.594-.281-1.219-.281-1.344 0-2.031 1.078-.687 1.062-.687 3.156t.687 3.172q.688 1.062 2.031 1.062.625 0 1.219-.265.594-.281 1.219-.86z"/><text x="256" y="32.78" fill="#D9B8FF" font-family="Helvetica" font-size="17" textLength="223">aws_beanstalk_application</text><rect width="283" height="39.789" x="213" y="106.79" fill="#3D176E" rx="2.5" ry="2.5" style="stroke:#000d19;stroke-width:.5"/><circle cx="228" cy="126.684" r="11" fill="#ADD1B2" style="stroke:#181818;stroke-width:1"/><path d="M230.969 132.325q-.578.297-1.219.438-.64.156-1.344.156-2.5 0-3.828-1.64-1.312-1.657-1.312-4.782t1.312-4.781q1.328-1.656 3.828-1.656.703 0 1.344.156.656.156 1.219.453v2.719q-.625-.579-1.219-.844-.594-.281-1.219-.281-1.344 0-2.031 1.078-.687 1.062-.687 3.156t.687 3.172q.688 1.062 2.031 1.062.625 0 1.219-.265.594-.281 1.219-.86z"/><text x="247" y="132.57" fill="#D9B8FF" font-family="Helvetica" font-size="17" textLength="241">aws_beanstalk_environment</text><rect width="192" height="39.789" x="258.5" y="306.37" fill="#3D176E" rx="2.5" ry="2.5" style="stroke:#000d19;stroke-width:.5"/><circle cx="273.5" cy="326.264" r="11" fill="#ADD1B2" style="stroke:#181818;stroke-width:1"/><path d="M276.469 331.905q-.578.297-1.219.438-.64.156-1.344.156-2.5 0-3.828-1.64-1.312-1.657-1.312-4.782t1.312-4.781q1.328-1.656 3.828-1.656.703 0 1.344.156.656.156 1.219.453v2.719q-.625-.579-1.219-.844-.594-.281-1.219-.281-1.344 0-2.031 1.078-.687 1.062-.687 3.156t.687 3.172q.688 1.062 2.031 1.062.625 0 1.219-.265.594-.281 1.219-.86z"/><text x="292.5" y="332.15" fill="#D9B8FF" font-family="Helvetica" font-size="17" textLength="150">aws_ec2_instance</text><rect width="171" height="39.789" x="494" y="206.58" fill="#3D176E" rx="2.5" ry="2.5" style="stroke:#000d19;stroke-width:.5"/><circle cx="509" cy="226.475" r="11" fill="#ADD1B2" style="stroke:#181818;stroke-width:1"/><path d="M511.969 232.115q-.578.297-1.219.438-.64.156-1.344.156-2.5 0-3.828-1.64-1.312-1.657-1.312-4.782t1.312-4.781q1.328-1.656 3.828-1.656.703 0 1.344.156.656.156 1.219.453v2.719q-.625-.578-1.219-.844-.594-.281-1.219-.281-1.344 0-2.031 1.078-.687 1.062-.687 3.156t.687 3.172q.688 1.062 2.031 1.062.625 0 1.219-.265.594-.281 1.219-.86z"/><text x="528" y="232.36" fill="#D9B8FF" font-family="Helvetica" font-size="17" textLength="129">aws_sqs_queue</text><path fill="none" d="M286.29 246.8c14.9 17.14 32.625 37.52 47.515 54.66" style="stroke:#1a83af;stroke-width:2"/><path fill="#1A83AF" d="m337.74 305.99-2.883-9.418-.396 5.643-5.643-.396z" style="stroke:#1a83af;stroke-width:2"/><path fill="none" d="M354.5 47.22v53.19" style="stroke:#1a83af;stroke-width:2"/><path fill="#1A83AF" d="m354.5 106.41 4-9-4 4-4-4z" style="stroke:#1a83af;stroke-width:2"/><path fill="none" d="M296.61 147.01c-52.36 17.48-123.239 41.13-174.629 58.28" style="stroke:#1a83af;stroke-width:2"/><path fill="#1A83AF" d="m116.29 207.19 9.803.945-5.06-2.528 2.528-5.06z" style="stroke:#1a83af;stroke-width:2"/><path fill="none" d="M337.71 147.01c-14.9 17.14-32.625 37.52-47.515 54.66" style="stroke:#1a83af;stroke-width:2"/><path fill="#1A83AF" d="m286.26 206.2 8.922-4.171-5.643.396-.396-5.643z" style="stroke:#1a83af;stroke-width:2"/><path fill="none" d="M371.43 146.84c12.12 15.07 27.42 37.22 34.07 59.74 5 16.96 5 22.83 0 39.79-6.65 22.53-18.19 39.995-30.31 55.065" style="stroke:#1a83af;stroke-width:2"/><path fill="#1A83AF" d="m371.43 306.11 8.757-4.506-5.623.61-.61-5.624z" style="stroke:#1a83af;stroke-width:2"/><path fill="none" d="M398.95 147.01a566032 566032 0 0 1 130.688 56.798" style="stroke:#1a83af;stroke-width:2"/><path fill="#1A83AF" d="m535.14 206.2-6.659-7.257 2.074 5.263-5.263 2.074z" style="stroke:#1a83af;stroke-width:2"/></svg>
